theme/dist/img/com-vlajka.svg

<svg clip-rule="evenodd" fill-rule="evenodd" stroke-linejoin="round" stroke-miterlimit="1.41421" viewBox="0 0 512 512" xmlns="http://www.w3.org/2000/svg"><g fill-rule="nonzero"><path d="m512 311.908v73.471c0 21.178-17.168 38.345-38.345 38.345h-435.31c-21.178 0-38.345-17.168-38.345-38.345v-73.471zm-512-.008v-111.808-73.471c0-21.178 17.167-38.345 38.345-38.345h435.31c21.178 0 38.345 17.167 38.345 38.345v185.279z" fill="#005fa5"/><g transform="matrix(.563486 0 0 .563486 111.748 111.748)"><g fill="#03aa6f"><path d="m441.374 79.519-26.485 17.656-44.141-8.828-26.485-8.828-35.313 8.828-26.485-8.828 17.656-35.313h35.313l34.607-17.303c26.689 13.198 50.834 31.013 71.333 52.616z"/><path d="m238.325 44.206-8.828 26.485-26.485 8.828-26.485 44.141-44.141 26.485-61.797 8.828v26.485l17.656 17.656v35.313l-26.483-17.657-26.485-17.656-15.361-46.171c26.44-63.008 76.982-112.817 140.368-138.339l25.072 16.774z"/><path d="m255.982 291.395-8.828 44.141-35.313 35.313v26.485l-35.313 26.484v44.141l-26.484-8.828-17.657-44.141v-88.282l-44.141-8.828-17.656-35.313v-26.485l17.656-17.656 26.485-26.485 17.656 35.313h61.797l26.485 44.141z"/><path d="m479.335 130.987c48.193 85.978 42.702 191.996-14.125 272.526l-23.836-23.836v-35.313l-17.656-35.313-17.656-35.313v-35.313l-26.485-17.656-35.313 8.828-61.797-26.485-8.828-61.797 26.485-26.485h52.969l17.656 26.485 52.969 8.828 52.969-17.656z"/></g><path d="m308.951 88.347 35.313-8.828 26.485 8.828 44.141 8.828 26.485-17.656c14.787 15.476 27.544 32.77 37.961 51.468l-2.648 1.501-52.969 17.656-52.969-8.828-17.656-26.485h-52.969l-26.485 26.485 8.828 61.797 61.797 26.485 35.313-8.828 26.485 17.656v35.313l35.312 70.626v35.313l23.836 23.836c-81.528 115.526-241.275 143.079-356.792 61.55-98.108-69.249-134.913-197.373-88.503-308.122l15.361 46.171 52.97 35.312-17.657 17.657v26.485l17.656 35.313 44.141 8.828v88.282l17.656 44.141 26.485 8.828v-44.141l35.313-26.485v-26.485l35.313-35.313 8.828-44.141h-35.313l-26.485-44.141h-61.797l-17.656-35.313-26.485 26.485v-35.313l-17.656-17.655v-26.485l61.797-8.828 44.141-26.485 26.485-44.141 26.485-8.828 8.828-26.485-52.969-8.828-25.072-16.774c67.889-27.341 144.235-24.322 209.758 8.299l-34.607 17.303h-35.313l-17.656 35.313z" fill="#86daf1"/></g></g></svg>

<?xml version="1.0" encoding="UTF-8" standalone="no"?>
<!DOCTYPE svg PUBLIC "-//W3C//DTD SVG 1.1//EN" "http://www.w3.org/Graphics/SVG/1.1/DTD/svg11.dtd">
<svg width="100%" height="100%" viewBox="0 0 512 512" version="1.1" xmlns="http://www.w3.org/2000/svg" xmlns:xlink="http://www.w3.org/1999/xlink" xml:space="preserve" xmlns:serif="http://www.serif.com/" style="fill-rule:evenodd;clip-rule:evenodd;stroke-linejoin:round;stroke-miterlimit:1.41421;">
    <path d="M512,311.908L512,385.379C512,406.557 494.832,423.724 473.655,423.724L38.345,423.724C17.167,423.724 0,406.556 0,385.379L0,311.908L512,311.908ZM0,311.9L0,200.092L0,126.621C0,105.443 17.167,88.276 38.345,88.276L473.655,88.276C494.833,88.276 512,105.443 512,126.621L512,311.9L0,311.9Z" style="fill:rgb(0,95,165);fill-rule:nonzero;"/>
    <g transform="matrix(0.563486,0,0,0.563486,111.748,111.748)">
        <path d="M441.374,79.519L414.889,97.175L370.748,88.347L344.263,79.519L308.95,88.347L282.465,79.519L300.121,44.206L335.434,44.206L370.041,26.903C396.73,40.101 420.875,57.916 441.374,79.519Z" style="fill:rgb(3,170,111);fill-rule:nonzero;"/>
        <path d="M238.325,44.206L229.497,70.691L203.012,79.519L176.527,123.66L132.386,150.145L70.589,158.973L70.589,185.458L88.245,203.114L88.245,238.427L61.762,220.77L35.277,203.114L19.916,156.943C46.356,93.935 96.898,44.126 160.284,18.604L185.356,35.378L238.325,44.206Z" style="fill:rgb(3,170,111);fill-rule:nonzero;"/>
        <path d="M255.982,291.395L247.154,335.536L211.841,370.849L211.841,397.334L176.528,423.818L176.528,467.959L150.044,459.131L132.387,414.99L132.387,326.708L88.246,317.88L70.59,282.567L70.59,256.082L88.246,238.426L114.731,211.941L132.387,247.254L194.184,247.254L220.669,291.395L255.982,291.395Z" style="fill:rgb(3,170,111);fill-rule:nonzero;"/>
        <path d="M479.335,130.987C527.528,216.965 522.037,322.983 465.21,403.513L441.374,379.677L441.374,344.364L423.718,309.051L406.062,273.738L406.062,238.425L379.577,220.769L344.264,229.597L282.467,203.112L273.639,141.315L300.124,114.83L353.093,114.83L370.749,141.315L423.718,150.143L476.687,132.487L479.335,130.987Z" style="fill:rgb(3,170,111);fill-rule:nonzero;"/>
    </g>
    <g transform="matrix(0.563486,0,0,0.563486,111.748,111.748)">
        <path d="M308.951,88.347L344.264,79.519L370.749,88.347L414.89,97.175L441.375,79.519C456.162,94.995 468.919,112.289 479.336,130.987L476.688,132.488L423.719,150.144L370.75,141.316L353.094,114.831L300.125,114.831L273.64,141.316L282.468,203.113L344.265,229.598L379.578,220.77L406.063,238.426L406.063,273.739L441.375,344.365L441.375,379.678L465.211,403.514C383.683,519.04 223.936,546.593 108.419,465.064C10.311,395.815 -26.494,267.691 19.916,156.942L35.277,203.113L88.247,238.425L70.59,256.082L70.59,282.567L88.246,317.88L132.387,326.708L132.387,414.99L150.043,459.131L176.528,467.959L176.528,423.818L211.841,397.333L211.841,370.848L247.154,335.535L255.982,291.394L220.669,291.394L194.184,247.253L132.387,247.253L114.731,211.94L88.246,238.425L88.246,203.112L70.59,185.457L70.59,158.972L132.387,150.144L176.528,123.659L203.013,79.518L229.498,70.69L238.326,44.205L185.357,35.377L160.285,18.603C228.174,-8.738 304.52,-5.719 370.043,26.902L335.436,44.205L300.123,44.205L282.467,79.518L308.951,88.347Z" style="fill:rgb(134,218,241);fill-rule:nonzero;"/>
    </g>
</svg>
